other/illimity.svg

<?xml version="1.0" encoding="UTF-8"?><svg id="b" xmlns="http://www.w3.org/2000/svg" viewBox="0 0 48 48"><defs><style>.c{fill:none;stroke:#fff;stroke-linecap:round;stroke-linejoin:round;}</style></defs><path class="c" d="m30.841,9.837C15.686-1.558-5.587,21.34,10.183,33.194c2.032,1.528,5.196,2.407,7.583,3.479,1.958.88,3.132,2.04,4.955,2.506,14.078,3.596,26.542-3.55,18.24-22.343-.743-1.682-3.383-4.555-5.018-5.397-13.219-6.805-10.338,12.107-11.932,18.424-.649,2.572-1.489,3.955-2.909,5.271-1.033.957-2.911,2.409-3.669,1.222-2.452-3.841-5.449-11.102.465-13.407,3.312-1.291,7.963,2.545,11.721,1.054,7.688-3.049,5.434-8.915,3.162-13.787"/></svg>

<?xml version="1.0" encoding="utf-8"?>
<svg viewBox="0 0 48 48" xmlns="http://www.w3.org/2000/svg">
  <defs>
    <style>.a{fill:none;stroke:#fff;stroke-linecap:round;stroke-linejoin:round;}</style>
  </defs>
  <path style="stroke: rgb(255, 255, 255); fill: none; stroke-linecap: round; stroke-linejoin: round;" d="M 30.841 9.837 C 15.686 -1.558 -5.587 21.34 10.183 33.194 C 12.215 34.722 15.379 35.601 17.766 36.673 C 19.724 37.553 20.898 38.713 22.721 39.179 C 36.799 42.775 49.263 35.629 40.961 16.836 C 40.218 15.154 37.578 12.281 35.943 11.439 C 22.724 4.634 25.605 23.546 24.011 29.863 C 23.362 32.435 22.522 33.818 21.102 35.134 C 20.069 36.091 18.191 37.543 17.433 36.356 C 14.981 32.515 11.984 25.254 17.898 22.949 C 21.21 21.658 25.861 25.494 29.619 24.003 C 37.307 20.954 35.053 15.088 32.781 10.216"/>
</svg>
